data/cards/self-care/sauna.svg

<svg xmlns="http://www.w3.org/2000/svg" width="512" height="512" fill="none"><path fill="#E0B799" d="M444.537 441.675H67.464c-10.185 0-18.442-8.257-18.442-18.442v-32.815c0-10.185 8.257-18.442 18.442-18.442h377.073c10.185 0 18.442 8.257 18.442 18.442v32.815c-.001 10.185-8.257 18.442-18.442 18.442Z"/><path fill="#D1986F" d="M431.201 441.675H80.8v48.013c0 12.323 9.99 22.312 22.312 22.312h305.776c12.323 0 22.312-9.99 22.312-22.312v-48.013h.001Z"/><path fill="#FFBE9D" d="M80.876 286.607c-12.286-5.902-17.463-20.646-11.562-32.933 5.9-12.286 20.645-17.464 32.933-11.562 17.378 8.347 68.942 14.923 85.768 6.853 12.294-5.895 27.032-.706 32.925 11.583 5.893 12.29.707 27.031-11.583 32.925-34.174 16.387-101.45 6.115-128.481-6.866Zm221.767 6.866c-12.291-5.894-17.477-20.635-11.583-32.925 5.893-12.29 20.633-17.474 32.925-11.583 16.828 8.069 68.391 1.494 85.768-6.853 12.287-5.903 27.031-.723 32.933 11.562 5.901 12.287.724 27.031-11.562 32.933-26.178 12.573-93.663 23.562-128.481 6.866Z"/><path fill="#FFD3BD" d="M151.839 181.093c13.989-13.988 13.989-36.668 0-50.657-13.988-13.988-36.668-13.988-50.656 0-13.989 13.989-13.989 36.669 0 50.657 13.988 13.988 36.668 13.988 50.656 0Z"/><path fill="#FFBE9D" d="M410.728 181.121c13.988-13.988 13.988-36.668 0-50.656-13.988-13.989-36.668-13.989-50.657 0-13.988 13.988-13.988 36.668 0 50.656 13.989 13.989 36.669 13.989 50.657 0Z"/><path fill="#FFD3BD" d="M342.977 315.888c0-53.436-38.941-96.754-86.977-96.754s-86.977 43.318-86.977 96.754c0 53.436 38.941 79.808 86.977 79.808s86.977-26.372 86.977-79.808Z"/><path fill="#FFD3BD" d="M256 272.49c70.974 0 128.509-52.258 128.509-116.722S326.974 39.046 256 39.046c-70.973 0-128.509 52.258-128.509 116.722S185.027 272.49 256 272.49Z"/><path fill="#FFBE9D" d="M309.579 261.885c-139.625-3.387-146.921-151.397-112.982-209.638-41.068 19.481-69.106 58.525-69.106 103.521 0 64.463 57.535 116.721 128.509 116.721 19.124.001 37.269-3.799 53.579-10.604Z"/><path fill="#E7889D" d="M210.383 190.365c0 11.732-11.942 21.242-26.674 21.242s-26.674-9.51-26.674-21.242c0-11.732 11.943-21.242 26.674-21.242s26.674 9.511 26.674 21.242Zm91.235 0c0 11.732 11.943 21.242 26.674 21.242 14.732 0 26.674-9.51 26.674-21.242 0-11.732-11.943-21.242-26.674-21.242-14.732 0-26.674 9.511-26.674 21.242Z"/><path fill="#4E5660" d="M277.506 174.044c0-13.291-9.628-14.54-21.506-14.54-11.877 0-21.506 1.249-21.506 14.54 0 13.291 9.629 24.065 21.506 24.065 11.878 0 21.506-10.774 21.506-24.065Zm-89.338-1.539a7.499 7.499 0 0 1-7.5-7.5v-10.892c0-4.143 3.357-7.5 7.5-7.5a7.5 7.5 0 0 1 7.5 7.5v10.892a7.5 7.5 0 0 1-7.5 7.5Zm135.664 0a7.499 7.499 0 0 1-7.5-7.5v-10.892c0-4.143 3.357-7.5 7.5-7.5s7.5 3.357 7.5 7.5v10.892a7.5 7.5 0 0 1-7.5 7.5Zm53.886-54.272C360.51 72.183 312.516 39.047 256 39.047c-56.516 0-104.51 33.137-121.718 79.186 43.482 2.171 107.654-12.884 121.718-36.902 14.064 24.018 78.236 39.073 121.718 36.902Z"/><path fill="#383C43" d="M179.871 115.324c1.257-24.544 7.452-47.165 16.729-63.082-29.085 13.796-51.635 37.403-62.318 65.99 13.859.693 29.819-.368 45.589-2.908Z"/><path fill="#FFD3BD" d="M298.082 466.089c-13.573-1.255-23.559-13.275-22.305-26.847 2.455-26.555.024-53.825-.001-54.098-1.238-13.568 8.753-25.58 22.32-26.826 13.553-1.251 25.577 8.73 26.832 22.298.119 1.289 2.885 31.943 0 63.168-1.248 13.501-13.188 23.554-26.846 22.305Zm-111.01-22.304c-2.885-31.225-.119-61.879 0-63.168 1.255-13.573 13.288-23.55 26.847-22.305 13.568 1.254 23.551 13.266 22.306 26.832-.025.272-2.456 27.543-.001 54.098 1.254 13.572-8.732 25.592-22.305 26.847-13.647 1.25-25.598-8.791-26.847-22.304Z"/><path fill="#8DAEE1" d="M342.553 405.866H169.448c-14.57 0-25.214-13.762-21.55-27.864 4.815-18.533 21.544-31.471 40.692-31.471h134.821c19.148 0 35.877 12.938 40.692 31.471 3.663 14.102-6.98 27.864-21.55 27.864Z"/><path fill="#6A95D6" d="M234.507 346.531H188.59c-19.148 0-35.877 12.938-40.692 31.471-3.664 14.102 6.98 27.864 21.55 27.864h75.912c-14.44-12.074-19.369-38.232-10.853-59.335Z"/><path fill="#F5E2A2" d="M483.992 174.732a7.481 7.481 0 0 1-5.304-2.196c-5.63-5.631-8.73-13.116-8.73-21.077 0-7.962 3.101-15.447 8.731-21.077 5.772-5.773 5.772-15.167-.001-20.941a7.498 7.498 0 0 1 .001-10.606 7.5 7.5 0 0 1 10.606 0c11.62 11.623 11.62 30.533 0 42.154a14.708 14.708 0 0 0-4.338 10.471 14.71 14.71 0 0 0 4.338 10.47 7.5 7.5 0 0 1-5.303 12.802Zm-62.759-96.638a7.485 7.485 0 0 1-5.304-2.196c-11.621-11.621-11.621-30.531 0-42.153a14.708 14.708 0 0 0 4.338-10.471 14.71 14.71 0 0 0-4.338-10.47 7.5 7.5 0 0 1 10.607-10.607c5.63 5.631 8.73 13.116 8.73 21.077 0 7.962-3.101 15.447-8.731 21.077-5.772 5.773-5.772 15.167.001 20.939a7.5 7.5 0 0 1-5.303 12.804ZM28.008 174.732a7.476 7.476 0 0 1-5.304-2.197c-11.621-11.622-11.621-30.532 0-42.153a14.71 14.71 0 0 0 4.338-10.47 14.71 14.71 0 0 0-4.338-10.471 7.5 7.5 0 0 1 10.607-10.607c11.622 11.622 11.622 30.533 0 42.155-5.773 5.772-5.773 15.166 0 20.94a7.498 7.498 0 0 1-.001 10.606 7.47 7.47 0 0 1-5.302 2.197Zm62.76-96.638a7.481 7.481 0 0 1-5.303-2.196c-5.631-5.63-8.731-13.115-8.731-21.077 0-7.96 3.101-15.446 8.73-21.077 5.773-5.772 5.773-15.166 0-20.94A7.5 7.5 0 0 1 96.072 2.2c11.621 11.622 11.621 30.532 0 42.153a14.71 14.71 0 0 0-4.338 10.47c0 3.955 1.54 7.674 4.337 10.47a7.498 7.498 0 0 1 .001 10.604 7.479 7.479 0 0 1-5.304 2.198Z"/></svg>

<svg width="512" height="512" viewBox="0 0 512 512" fill="none" xmlns="http://www.w3.org/2000/svg">
<path d="M444.537 441.675H67.464C57.279 441.675 49.022 433.418 49.022 423.233V390.418C49.022 380.233 57.279 371.976 67.464 371.976H444.537C454.722 371.976 462.979 380.233 462.979 390.418V423.233C462.978 433.418 454.722 441.675 444.537 441.675Z" fill="#E0B799"/>
<path d="M431.201 441.675H80.8V489.688C80.8 502.011 90.79 512 103.112 512H408.888C421.211 512 431.2 502.01 431.2 489.688V441.675H431.201Z" fill="#D1986F"/>
<path d="M80.876 286.607C68.59 280.705 63.413 265.961 69.314 253.674C75.214 241.388 89.959 236.21 102.247 242.112C119.625 250.459 171.189 257.035 188.015 248.965C200.309 243.07 215.047 248.259 220.94 260.548C226.833 272.838 221.647 287.579 209.357 293.473C175.183 309.86 107.907 299.588 80.876 286.607Z" fill="#FFBE9D"/>
<path d="M302.643 293.473C290.352 287.579 285.166 272.838 291.06 260.548C296.953 248.258 311.693 243.074 323.985 248.965C340.813 257.034 392.376 250.459 409.753 242.112C422.04 236.209 436.784 241.389 442.686 253.674C448.587 265.961 443.41 280.705 431.124 286.607C404.946 299.18 337.461 310.169 302.643 293.473Z" fill="#FFBE9D"/>
<path d="M151.839 181.093C165.828 167.105 165.828 144.425 151.839 130.436C137.851 116.448 115.171 116.448 101.183 130.436C87.1945 144.425 87.1945 167.105 101.183 181.093C115.171 195.081 137.851 195.081 151.839 181.093Z" fill="#FFD3BD"/>
<path d="M410.728 181.121C424.716 167.133 424.716 144.453 410.728 130.465C396.74 116.476 374.06 116.476 360.071 130.465C346.083 144.453 346.083 167.133 360.071 181.121C374.06 195.11 396.74 195.11 410.728 181.121Z" fill="#FFBE9D"/>
<path d="M342.977 315.888C342.977 262.452 304.036 219.134 256 219.134C207.964 219.134 169.023 262.452 169.023 315.888C169.023 369.324 207.964 395.696 256 395.696C304.036 395.696 342.977 369.324 342.977 315.888Z" fill="#FFD3BD"/>
<path d="M256 272.49C326.974 272.49 384.509 220.232 384.509 155.768C384.509 91.3041 326.974 39.0459 256 39.0459C185.027 39.0459 127.491 91.3041 127.491 155.768C127.491 220.232 185.027 272.49 256 272.49Z" fill="#FFD3BD"/>
<path d="M309.579 261.885C169.954 258.498 162.658 110.488 196.597 52.2471C155.529 71.7281 127.491 110.772 127.491 155.768C127.491 220.231 185.026 272.489 256 272.489C275.124 272.49 293.269 268.69 309.579 261.885Z" fill="#FFBE9D"/>
<path d="M210.383 190.365C210.383 202.097 198.441 211.607 183.709 211.607C168.977 211.607 157.035 202.097 157.035 190.365C157.035 178.633 168.978 169.123 183.709 169.123C198.44 169.123 210.383 178.634 210.383 190.365Z" fill="#E7889D"/>
<path d="M301.618 190.365C301.618 202.097 313.561 211.607 328.292 211.607C343.024 211.607 354.966 202.097 354.966 190.365C354.966 178.633 343.023 169.123 328.292 169.123C313.56 169.123 301.618 178.634 301.618 190.365Z" fill="#E7889D"/>
<path d="M277.506 174.044C277.506 160.753 267.878 159.504 256 159.504C244.123 159.504 234.494 160.753 234.494 174.044C234.494 187.335 244.123 198.109 256 198.109C267.878 198.109 277.506 187.335 277.506 174.044Z" fill="#4E5660"/>
<path d="M188.168 172.505C184.025 172.505 180.668 169.148 180.668 165.005V154.113C180.668 149.97 184.025 146.613 188.168 146.613C192.31 146.613 195.668 149.97 195.668 154.113V165.005C195.668 169.147 192.311 172.505 188.168 172.505Z" fill="#4E5660"/>
<path d="M323.832 172.505C319.689 172.505 316.332 169.148 316.332 165.005V154.113C316.332 149.97 319.689 146.613 323.832 146.613C327.975 146.613 331.332 149.97 331.332 154.113V165.005C331.332 169.147 327.975 172.505 323.832 172.505Z" fill="#4E5660"/>
<path d="M377.718 118.233C360.51 72.1839 312.516 39.0469 256 39.0469C199.484 39.0469 151.49 72.1839 134.282 118.233C177.764 120.404 241.936 105.349 256 81.3309C270.064 105.349 334.236 120.404 377.718 118.233Z" fill="#4E5660"/>
<path d="M179.871 115.324C181.128 90.7802 187.323 68.1592 196.6 52.2422C167.515 66.0382 144.965 89.6452 134.282 118.232C148.141 118.925 164.101 117.864 179.871 115.324Z" fill="#383C43"/>
<path d="M298.082 466.089C284.509 464.834 274.523 452.814 275.777 439.242C278.232 412.687 275.801 385.417 275.776 385.144C274.538 371.576 284.529 359.564 298.096 358.318C311.649 357.067 323.673 367.048 324.928 380.616C325.047 381.905 327.813 412.559 324.928 443.784C323.68 457.285 311.74 467.338 298.082 466.089Z" fill="#FFD3BD"/>
<path d="M187.072 443.785C184.187 412.56 186.953 381.906 187.072 380.617C188.327 367.044 200.36 357.067 213.919 358.312C227.487 359.566 237.47 371.578 236.225 385.144C236.2 385.416 233.769 412.687 236.224 439.242C237.478 452.814 227.492 464.834 213.919 466.089C200.272 467.339 188.321 457.298 187.072 443.785Z" fill="#FFD3BD"/>
<path d="M342.553 405.866H169.448C154.878 405.866 144.234 392.104 147.898 378.002C152.713 359.469 169.442 346.531 188.59 346.531H323.411C342.559 346.531 359.288 359.469 364.103 378.002C367.766 392.104 357.123 405.866 342.553 405.866Z" fill="#8DAEE1"/>
<path d="M234.507 346.531H188.59C169.442 346.531 152.713 359.469 147.898 378.002C144.234 392.104 154.878 405.866 169.448 405.866H245.36C230.92 393.792 225.991 367.634 234.507 346.531Z" fill="#6A95D6"/>
<path d="M483.992 174.732C482.073 174.732 480.153 174 478.688 172.536C473.058 166.905 469.958 159.42 469.958 151.459C469.958 143.497 473.059 136.012 478.689 130.382C484.461 124.609 484.461 115.215 478.688 109.441C475.759 106.512 475.759 101.763 478.689 98.8349C481.618 95.9059 486.367 95.9069 489.295 98.8359C500.915 110.458 500.915 129.368 489.295 140.989C486.497 143.786 484.957 147.505 484.957 151.46C484.957 155.415 486.498 159.133 489.295 161.93C492.224 164.86 492.224 169.608 489.295 172.537C487.831 174 485.911 174.732 483.992 174.732Z" fill="#F5E2A2"/>
<path d="M421.233 78.094C419.314 78.094 417.394 77.361 415.929 75.898C404.308 64.277 404.308 45.367 415.929 33.745C418.727 30.948 420.267 27.229 420.267 23.274C420.267 19.319 418.726 15.601 415.929 12.804C413 9.87398 413 5.12598 415.929 2.19698C418.859 -0.731023 423.607 -0.731023 426.536 2.19698C432.166 7.82798 435.266 15.313 435.266 23.274C435.266 31.236 432.165 38.721 426.535 44.351C420.763 50.124 420.763 59.518 426.536 65.29C429.465 68.22 429.465 72.968 426.536 75.897C425.072 77.361 423.152 78.094 421.233 78.094Z" fill="#F5E2A2"/>
<path d="M28.008 174.732C26.088 174.732 24.169 174 22.704 172.535C11.083 160.913 11.083 142.003 22.704 130.382C25.501 127.585 27.042 123.867 27.042 119.912C27.042 115.956 25.501 112.238 22.704 109.441C19.775 106.511 19.775 101.763 22.704 98.8337C25.634 95.9057 30.382 95.9057 33.311 98.8337C44.933 110.456 44.933 129.367 33.311 140.989C27.538 146.761 27.538 156.155 33.311 161.929C36.24 164.858 36.24 169.607 33.31 172.535C31.847 174 29.927 174.732 28.008 174.732Z" fill="#F5E2A2"/>
<path d="M90.768 78.0942C88.849 78.0942 86.929 77.3612 85.465 75.8982C79.834 70.2682 76.734 62.7832 76.734 54.8212C76.734 46.8602 79.835 39.3752 85.464 33.7442C91.237 27.9722 91.237 18.5782 85.464 12.8042C82.535 9.8752 82.535 5.1262 85.465 2.1982C88.394 -0.730797 93.143 -0.729797 96.072 2.1992C107.693 13.8212 107.693 32.7312 96.072 44.3522C93.275 47.1492 91.734 50.8672 91.734 54.8222C91.734 58.7772 93.274 62.4962 96.071 65.2922C99 68.2192 99 72.9682 96.072 75.8962C94.607 77.3612 92.687 78.0942 90.768 78.0942Z" fill="#F5E2A2"/>
</svg>
